X:1
T:Foraarsvise
T:Foraarsvise
T:Norsk Folkem.
T:Ukjent
C:Ukjent
%%score [ 1 2 3 4 ]
L:1/8
Q:1/4=84
M:2/4
K:Bb
V:1 treble-8 nm="T1"
V:2 treble-8 nm="T2"
V:3 bass nm="B1"
V:4 bass nm="B2"
V:1
"^Allegretto"!p! F | (B>d)"^cresc." c3/2 d/ | B2 G3/2!mf! G/ | F3/2 B/ c3/2 c/ | %4
w: Nær|Maj- * daa- gaa|lok- kje aa|Sog- la sjin so|
 d3/2!<(! f/ b3/2!<)! g/ | f3/2 d/ c3/2 d/ | B2 A3/2 A/ | G3/2"^cresc." B/ A3/2 G/ | d2 z!f! d | %9
w: var aa vent, daa|Gjen- tun ut- i|Flok- kje lyt|pin- te sæ so|pent. Dej|
 f3/2 f/ e3/2 c/ | =B3/2 d/ c3/2 e/ | A3/2!<(! A/ d3/2!<)! c/ |!>(! B3/2 A/!>)! B3/2 G/ | %13
w: stæn- de ut fraa|Hus aa Gar, me|Fæ aa Gjeit aa|Sou dej drar, dökk|
"^cresc." F3/2 B/ c3/2 d/ | B z!f! !>!g2 | f3/2 B/ c3/2 d/ | B2 z |] %17
w: Hug te Fjöl- lun|stænn, dökk|Hug te Fjöl- lun|stænn.|
V:2
!p! F | (F>B)"^cresc." B3/2 A/ | F2 G3/2!mf! G/ | F3/2 F/ A3/2 A/ | B3/2!<(! c/ d3/2!<)! e/ | %5
w: Nær|Maj- * daa- gaa|lok- kje aa|Sog- la sjin so|var aa vent, daa|
 c3/2 B/ B3/2 A/ | G2 F3/2 F/ | G3/2"^cresc." B/ A3/2 G/ | A2 z!f! =B | d3/2 d/ c3/2 c/ | %10
w: Gjen- tun ut- i|Flok- kje lyt|pin- te sæ so|pent. Dej|stæn- de ut fraa|
 =B3/2 B/ c3/2 c/ | A3/2!<(! A/ A3/2!<)! A/ |!>(! B3/2 A/!>)! G3/2 G/ |"^cresc." F3/2 F/ A3/2 A/ | %14
w: Hus aa Gar, me|Fæ aa Gjeit aa|Sou dej drar, dökk|Hug te Fjöl- lun|
 B z!f! !>!e2 | d3/2 B/ B3/2 A/ | B2 z |] %17
w: stænn, dökk|Hug te Fjöl- lun|stænn.|
V:3
!p! F, | (D,>F,)"^cresc." G,3/2 F,/ | D,2 E,3/2!mf! E,/ | D,3/2 D,/ F,3/2 F,/ | %4
w: Nær|Maj- * daa- gaa|lok- kje aa|Sog- la sjin so|
 B,3/2!<(! C/ B,3/2!<)! B,/ | A,3/2 B,/ G,3/2 A,/ | B,2 F,3/2 F,/ | G,3/2"^cresc." F,/ E,3/2 =E,/ | %8
w: var aa vent, daa|Gjen- tun ut- i|Flok- kje lyt|pin- te sæ so|
 ^F,2 z!f! G, | G,3/2 G,/ G,3/2 G,/ | G,3/2 G,/ G,3/2 G,/ | G,3/2!<(! G,/ ^F,3/2!<)! F,/ | %12
w: pent. Dej|stæn- de ut fraa|Hus aa Gar, me|Fæ aa Gjeit aa|
!>(! G,3/2 =F,/!>)! E,3/2 E,/ |"^cresc." D,3/2 D,/ E,3/2 F,/ | D, z!f! !>!B,2 | %15
w: Sou dej drar, dökk|Hug te Fjöl- lun|stænn, dökk|
 B,3/2 F,/ G,3/2 F,/ | D,2 z |] %17
w: Hug te Fjöl- lun|stænn.|
V:4
!p! F, | (D,>B,,)"^cresc." E,3/2 F,/ | B,,2 E,3/2!mf! E,/ | D,3/2 B,,/ F,3/2 F,/ | %4
w: Nær|Maj- * daa- gaa|lok- kje aa|Sog- la sjin so|
 _A,3/2!<(! G,/ F,3/2!<)! E,/ | F,3/2 G,/ E,3/2 F,/ | G,2 D,3/2 D,/ | %7
w: var aa vent, daa|Gjen- tun ut- i|Flok- kje lyt|
 E,3/2"^cresc." D,/ C,3/2 ^C,/ | D,2 z!f! G, | =B,,3/2 B,,/ C,3/2 E,/ | F,3/2 F,/ E,3/2 C,/ | %11
w: pin- te sæ so|pent. Dej|stæn- de ut fraa|Hus aa Gar, me|
 D,3/2!<(! D,/ D,3/2!<)! ^F,/ |!>(! G,3/2 =F,/!>)! E,3/2 E,/ |"^cresc." D,3/2 B,,/ F,,3/2 F,,/ | %14
w: Fæ aa Gjeit aa|Sou dej drar, dökk|Hug te Fjöl- lun|
 B,, z!f! (!>!E,>G,) | B,3/2 D,/ E,3/2 F,/ | B,,2 z |] %17
w: stænn, dökk _|Hug te Fjöl- lun|stænn.|

